X: 1
T: \vSastjorkka
O: Finland
S: printed copy of unknown origin
Z: 2013 John Chambers <jc:trillian.mit.edu>
M: 2/4
L: 1/8
K: Dm
N: The copy has 2 flats, but there are no Es in the tune, and Dm makes the most sense.
"A7"A |:\
"Dm"F2 D2 | F2 A2 | "Gm"G3 A | "Dm"F2 D2 |\
F2 A2 | "A7"G2 GF | "Dm"A2 AG | F2 "Gm"BA |\
"A7"G2 GF | "Dm"A2 AG | F2 "Gm"BA |1 "A7"G2 GA :|2 "Gm"G2 G |]
